X:38
T:The Queen of the Rushes                                                                           
M:6/8                                                                                               
L:1/8                                                                                               
K:G                                                                                                 
d/c/|B2 G GdB|c2 A AGA|B2 G GAB|cAG FED|\                                                           
B2 G B2 G|c2 A AGA|BdB cAd|G3 G2 :|                                                                 
g|fed efg|afd dcA|gfg bag|afd d2 e|\                                                                
=f2 d e^fg|afd dcA|BdB cAd|G3 G2 :|                                                                 
B/c/|d3 gdB|d3 gdB|cBc ABc|cBc ABc|\                                                                
d3 gdB|d3 gdB|BdB cAd|G3 G2 :|
